icons/delete-bin-4-line.svg

<svg xmlns="http://www.w3.org/2000/svg" width="24" height="24" fill="none"><g clip-path="url(#a)"><g><path fill="#121212" d="M20 7V21C20 21.2652 19.8946 21.5196 19.7071 21.7071C19.5196 21.8946 19.2652 22 19 22H5C4.73478 22 4.48043 21.8946 4.29289 21.7071C4.10536 21.5196 4 21.2652 4 21V7H2V5H22V7H20ZM6 7V20H18V7H6ZM7 2H17V4H7V2ZM11 10H13V17H11V10Z"/></g></g><defs><clipPath id="a"><rect width="24" height="24" fill="white"/></clipPath></defs></svg>

<svg width="24" height="24" fill="none" xmlns="http://www.w3.org/2000/svg"><g clip-path="url(#a)"><path d="M20 7v14a1 1 0 0 1-1 1H5a1 1 0 0 1-1-1V7H2V5h20v2h-2ZM6 7v13h12V7H6Zm1-5h10v2H7V2Zm4 8h2v7h-2v-7Z" /></g><defs><clipPath id="a"><path fill="#fff" d="M0 0h24v24H0z"/></clipPath></defs></svg>
